apps/scalable/ubuntu-start-here.svg

<?xml version="1.0" encoding="UTF-8" standalone="no"?>
<svg
   xmlns:dc="http://purl.org/dc/elements/1.1/"
   xmlns:cc="http://creativecommons.org/ns#"
   xmlns:rdf="http://www.w3.org/1999/02/22-rdf-syntax-ns#"
   xmlns:svg="http://www.w3.org/2000/svg"
   xmlns="http://www.w3.org/2000/svg"
   xmlns:sodipodi="http://sodipodi.sourceforge.net/DTD/sodipodi-0.dtd"
   xmlns:inkscape="http://www.inkscape.org/namespaces/inkscape"
   version="1.1"
   width="512"
   height="512"
   viewBox="0 0 512 512"
   style="overflow:visible"
   xml:space="preserve"
   id="svg2"
   sodipodi:version="0.32"
   inkscape:version="0.91+devel r"
   sodipodi:docname="system.svg"
   inkscape:output_extension="org.inkscape.output.svg.inkscape"><metadata
     id="metadata51"><rdf:RDF><cc:Work
         rdf:about=""><dc:format>image/svg+xml</dc:format><dc:type
           rdf:resource="http://purl.org/dc/dcmitype/StillImage" /><dc:title></dc:title></cc:Work></rdf:RDF></metadata><defs
     id="defs49"><inkscape:perspective
       sodipodi:type="inkscape:persp3d"
       inkscape:vp_x="0 : 64 : 1"
       inkscape:vp_y="0 : 1000 : 0"
       inkscape:vp_z="128 : 64 : 1"
       inkscape:persp3d-origin="64 : 42.666667 : 1"
       id="perspective53" /></defs><sodipodi:namedview
     inkscape:window-height="1026"
     inkscape:window-width="959"
     inkscape:pageshadow="2"
     inkscape:pageopacity="0.0"
     guidetolerance="10.0"
     gridtolerance="10.0"
     objecttolerance="10.0"
     borderopacity="1.0"
     bordercolor="#666666"
     pagecolor="#ffffff"
     id="base"
     showgrid="false"
     inkscape:zoom="0.31659338"
     inkscape:cx="222.12802"
     inkscape:cy="-0.16112524"
     inkscape:window-x="960"
     inkscape:window-y="27"
     inkscape:current-layer="svg2"
     inkscape:window-maximized="0" /><path
     style="fill:#e04b26;fill-opacity:1;stroke-width:3.66606522"
     d="M 392.47656 31 A 46.143673 45.546558 0 0 0 346.33398 76.546875 A 46.143673 45.546558 0 0 0 392.47656 122.09375 A 46.143673 45.546558 0 0 0 438.62109 76.546875 A 46.143673 45.546558 0 0 0 392.47656 31 z M 295.04883 66.650391 C 266.60647 66.653991 237.86796 73.710841 211.9375 86.369141 C 211.01536 86.820961 210.32937 87.638714 210.05273 88.615234 C 209.7724 89.591744 209.92675 90.636174 210.47266 91.496094 L 247.80859 150.01172 C 248.75655 151.49836 250.65547 152.08763 252.29688 151.40625 C 266.14367 145.62366 280.53072 142.69141 295.04883 142.69141 C 348.45156 142.69141 395.03327 181.80346 403.40625 233.67188 C 403.68658 235.41358 405.20672 236.69141 406.98828 236.69141 L 477.36523 236.79688 C 478.39064 236.79688 479.36883 236.37169 480.05859 235.62109 C 480.74835 234.87048 481.08028 233.87623 480.98438 232.86328 C 477.19254 194.37826 460.60877 157.25475 434.29102 128.3418 C 433.10331 127.03006 431.12233 126.76826 429.62109 127.72656 C 419.00916 134.4966 406.95495 138.08203 394.77539 138.08203 C 359.24367 138.08203 330.33963 109.69752 330.33594 74.8125 C 330.33994 74.7943 330.40625 73.478222 330.40625 73.419922 C 330.40625 71.68187 329.14116 70.185504 327.39648 69.886719 C 316.28659 67.984695 305.40626 66.650391 295.04883 66.650391 z M 182.85547 104.72656 C 182.09955 104.75235 181.36203 105.00885 180.76172 105.4707 C 150.26485 128.67393 127.3408 161.32218 116.20508 197.40234 C 115.76984 198.81246 116.24917 200.34155 117.42578 201.25977 C 132.75168 213.25127 141.90039 231.71174 141.90039 250.64453 C 141.90039 269.57733 132.74755 288.04366 117.41797 300.03516 C 116.2487 300.94973 115.76202 302.47491 116.19727 303.88867 C 127.24445 339.6664 149.91061 372.12902 180.03125 395.28125 C 180.83904 395.90433 181.87214 396.15928 182.88281 395.98438 C 183.88978 395.81311 184.77853 395.22594 185.32812 394.37695 L 222.98438 335.99805 C 223.94708 334.50777 223.66663 332.54658 222.32031 331.37695 C 198.68044 310.82999 185.125 281.40316 185.125 250.64648 C 185.125 219.66024 198.82589 190.10308 222.71289 169.54883 C 224.05921 168.38648 224.35377 166.42921 223.39844 164.93164 L 186.05078 106.39648 C 185.50488 105.54385 184.62025 104.95224 183.61328 104.77734 C 183.36154 104.73362 183.10744 104.71797 182.85547 104.72656 z M 78.224609 204.88672 A 47.224419 46.617813 0 0 0 31 251.50391 A 47.224419 46.617813 0 0 0 78.224609 298.12109 A 47.224419 46.617813 0 0 0 125.44922 251.50391 A 47.224419 46.617813 0 0 0 78.224609 204.88672 z M 477.29102 265.04688 L 406.92188 265.27344 C 405.14769 265.27744 403.63168 266.55608 403.34766 268.2832 C 394.86034 319.76539 348.30401 358.58984 295.04883 358.58984 C 280.36105 358.58984 265.81226 355.58681 251.81055 349.66211 C 250.17284 348.97344 248.27716 349.55359 247.31445 351.0293 L 209.67969 409.38281 C 209.1301 410.23908 208.97314 411.28547 209.24609 412.26562 C 209.51904 413.24214 210.20069 414.06185 211.11914 414.51367 C 237.25247 427.43796 266.27819 434.26563 295.04883 434.26562 C 305.71979 434.26562 316.83177 433.27008 328.07812 431.29883 C 329.65683 431.02555 330.86657 429.75404 331.05469 428.18359 C 334.80225 396.20991 362.1982 372.0957 394.77539 372.0957 C 404.87461 372.0957 415.15084 374.6395 424.49023 379.44922 C 425.91032 380.18161 427.64063 379.9125 428.76562 378.7793 C 458.21864 349.10845 476.74644 310.12477 480.92188 268.99805 C 481.02515 267.98874 480.68953 266.98277 479.99609 266.22852 C 479.30264 265.47427 478.31644 265.04323 477.29102 265.04688 z M 394.26953 388.24609 A 47.224419 46.377327 0 0 0 347.04492 434.62305 A 47.224419 46.377327 0 0 0 394.26953 481 A 47.224419 46.377327 0 0 0 441.49414 434.62305 A 47.224419 46.377327 0 0 0 394.26953 388.24609 z "
     id="path10" /><linearGradient
     id="XMLID_3_"
     gradientUnits="userSpaceOnUse"
     x1="75.503899"
     y1="11.96"
     x2="85.596901"
     y2="36.3307"><stop
       offset="0"
       style="stop-color:#F99D77"
       id="stop33" /><stop
       offset="1"
       style="stop-color:#F7804E"
       id="stop35" /></linearGradient><linearGradient
     id="XMLID_4_"
     gradientUnits="userSpaceOnUse"
     x1="37.674301"
     y1="25.6035"
     x2="37.674301"
     y2="47.500599"><stop
       offset="0"
       style="stop-color:#FCB462"
       id="stop40" /><stop
       offset="1"
       style="stop-color:#FCAF55"
       id="stop42" /></linearGradient></svg>

<?xml version="1.0" encoding="UTF-8" standalone="no"?>
<svg
   xmlns:osb="http://www.openswatchbook.org/uri/2009/osb"
   xmlns:dc="http://purl.org/dc/elements/1.1/"
   xmlns:cc="http://creativecommons.org/ns#"
   xmlns:rdf="http://www.w3.org/1999/02/22-rdf-syntax-ns#"
   xmlns:svg="http://www.w3.org/2000/svg"
   xmlns="http://www.w3.org/2000/svg"
   xmlns:xlink="http://www.w3.org/1999/xlink"
   xmlns:sodipodi="http://sodipodi.sourceforge.net/DTD/sodipodi-0.dtd"
   xmlns:inkscape="http://www.inkscape.org/namespaces/inkscape"
   version="1.1"
   width="512"
   height="512"
   viewBox="0 0 512 512"
   style="overflow:visible"
   xml:space="preserve"
   id="svg2"
   sodipodi:version="0.32"
   inkscape:version="0.91 r13725"
   sodipodi:docname="ubuntu-start-here.svg"
   inkscape:output_extension="org.inkscape.output.svg.inkscape"><metadata
     id="metadata51"><rdf:RDF><cc:Work
         rdf:about=""><dc:format>image/svg+xml</dc:format><dc:type
           rdf:resource="http://purl.org/dc/dcmitype/StillImage" /><dc:title></dc:title></cc:Work></rdf:RDF></metadata><defs
     id="defs49"><linearGradient
       y2="47.500599"
       x2="37.674301"
       y1="25.6035"
       x1="37.674301"
       gradientUnits="userSpaceOnUse"
       id="linearGradient4211"><stop
         id="stop4213"
         style="stop-color:#367bf0;stop-opacity:1"
         offset="0" /><stop
         id="stop4215"
         style="stop-color:#cf4343;stop-opacity:0"
         offset="1" /></linearGradient><linearGradient
       id="linearGradient4161"
       osb:paint="solid"><stop
         style="stop-color:#ba3d3d;stop-opacity:1;"
         offset="0"
         id="stop4163" /></linearGradient><linearGradient
       id="linearGradient4155"
       osb:paint="solid"><stop
         style="stop-color:#ba174e;stop-opacity:1;"
         offset="0"
         id="stop4157" /></linearGradient><inkscape:perspective
       sodipodi:type="inkscape:persp3d"
       inkscape:vp_x="0 : 64 : 1"
       inkscape:vp_y="0 : 1000 : 0"
       inkscape:vp_z="128 : 64 : 1"
       inkscape:persp3d-origin="64 : 42.666667 : 1"
       id="perspective53" /><linearGradient
       inkscape:collect="always"
       xlink:href="#XMLID_4_"
       id="linearGradient4181"
       x1="104.04292"
       y1="253.63103"
       x2="601.60852"
       y2="255.99998"
       gradientUnits="userSpaceOnUse" /><linearGradient
       id="linearGradient4206"
       gradientUnits="userSpaceOnUse"
       x1="37.674301"
       y1="25.6035"
       x2="37.674301"
       y2="47.500599"><stop
         offset="0"
         style="stop-color:#ba174e;stop-opacity:0.99607843"
         id="stop40-9" /><stop
         offset="1"
         style="stop-color:#ffc831;stop-opacity:1"
         id="stop42-1" /></linearGradient><radialGradient
       inkscape:collect="always"
       xlink:href="#linearGradient4211"
       id="radialGradient4217"
       cx="278.38474"
       cy="-30.232504"
       fx="278.38474"
       fy="-30.232504"
       r="225.0003"
       gradientTransform="matrix(0.77813776,1.9082386,-0.92597116,0.37759068,92.265568,-594.66588)"
       gradientUnits="userSpaceOnUse" /></defs><sodipodi:namedview
     inkscape:window-height="2036"
     inkscape:window-width="1920"
     inkscape:pageshadow="2"
     inkscape:pageopacity="0.0"
     guidetolerance="10.0"
     gridtolerance="10.0"
     objecttolerance="10.0"
     borderopacity="1.0"
     bordercolor="#666666"
     pagecolor="#ffffff"
     id="base"
     showgrid="false"
     inkscape:zoom="0.8954613"
     inkscape:cx="428.70905"
     inkscape:cy="72.016638"
     inkscape:window-x="0"
     inkscape:window-y="64"
     inkscape:current-layer="svg2"
     inkscape:window-maximized="0" /><path
     inkscape:connector-curvature="0"
     style="overflow:visible;opacity:0.2;fill:#000000;fill-opacity:1;stroke-width:3.66606522"
     d="M 384.5019,50.741383 A 42.095051,41.550326 0 0 0 342.40785,92.291999 42.095051,41.550326 0 0 0 384.5019,133.84262 42.095051,41.550326 0 0 0 426.59774,92.291999 42.095051,41.550326 0 0 0 384.5019,50.741383 Z m -88.87947,32.522444 c -25.94684,0.0033 -52.16385,6.44097 -75.81918,17.988643 -0.84123,0.41217 -1.46704,1.15818 -1.7194,2.04902 -0.25574,0.89083 -0.11493,1.84362 0.38308,2.62809 l 34.0601,53.3815 c 0.86478,1.3562 2.59709,1.89377 4.09449,1.27217 12.63188,-5.27523 25.75661,-7.9502 39.00091,-7.9502 48.7172,0 91.21186,35.68038 98.8502,82.99789 0.25573,1.58888 1.6425,2.7546 3.26774,2.7546 l 64.20211,0.0962 c 0.93545,0 1.82781,-0.38788 2.45705,-1.07262 0.62924,-0.68476 0.93205,-1.59177 0.84456,-2.51585 -3.45914,-35.10836 -18.58786,-68.97467 -42.59651,-95.35082 -1.0835,-1.19664 -2.89067,-1.43547 -4.26019,-0.56125 -9.68084,6.17604 -20.67742,9.44688 -31.78836,9.44688 -32.41418,0 -58.78219,-25.89407 -58.78556,-57.718293 0.004,-0.0166 0.0641,-1.217209 0.0641,-1.270394 0,-1.585556 -1.15409,-2.950632 -2.74569,-3.223201 C 314.99679,84.48106 305.0711,83.263827 295.62242,83.263827 Z M 193.27286,117.99921 c -0.6896,0.0235 -1.36241,0.25753 -1.91005,0.67885 -27.82109,21.16739 -48.73379,50.9511 -58.89247,83.86561 -0.39705,1.2864 0.0402,2.68132 1.1136,3.51898 13.98121,10.93937 22.32722,27.78013 22.32722,45.05177 0,17.27164 -8.34978,34.11775 -22.33435,45.05712 -1.06668,0.83432 -1.51066,2.22569 -1.11359,3.5154 10.0779,32.63861 30.75534,62.25298 58.23322,83.37384 0.73691,0.56842 1.67937,0.801 2.60136,0.64144 0.91862,-0.15624 1.72939,-0.69189 2.23076,-1.46639 l 34.35232,-53.25677 c 0.87823,-1.35952 0.62239,-3.14864 -0.6058,-4.21564 -21.56572,-18.74419 -33.93182,-45.58912 -33.93182,-73.64722 0,-28.26753 12.49878,-55.23136 34.28995,-73.98219 1.22819,-1.06036 1.49691,-2.8459 0.6254,-4.21208 l -34.07079,-53.39931 c -0.49801,-0.77782 -1.30502,-1.31753 -2.22364,-1.47708 -0.22965,-0.0399 -0.46146,-0.0542 -0.69132,-0.0463 z M 97.822257,209.37137 A 43.080973,42.52759 0 0 0 54.74111,251.89839 43.080973,42.52759 0 0 0 97.822257,294.42541 43.080973,42.52759 0 0 0 140.9034,251.89839 43.080973,42.52759 0 0 0 97.822257,209.37137 Z m 364.052533,54.88174 -64.19499,0.20668 c -1.61853,0.004 -3.00152,1.17011 -3.26062,2.74569 -7.74265,46.96517 -50.21415,82.38318 -98.79675,82.38318 -13.39908,0 -26.67137,-2.73955 -39.44457,-8.14442 -1.49402,-0.62824 -3.22338,-0.099 -4.10162,1.24724 l -34.3327,53.2336 c -0.50137,0.78114 -0.64456,1.73572 -0.39556,2.62987 0.249,0.89085 0.87084,1.63863 1.70871,2.05081 23.84041,11.79032 50.31942,18.01894 76.56574,18.01893 9.7347,0 19.87172,-0.9082 30.13132,-2.70649 1.44019,-0.2493 2.54379,-1.40925 2.71541,-2.84191 3.41875,-29.16833 28.41099,-51.16677 58.12987,-51.16677 9.21312,0 18.58772,2.32061 27.10768,6.70833 1.29549,0.66813 2.87399,0.42263 3.90027,-0.61114 26.86883,-27.06755 43.77101,-62.63082 47.5801,-100.1491 0.0942,-0.92076 -0.21197,-1.83846 -0.84457,-2.52654 -0.6326,-0.68807 -1.53227,-1.08129 -2.46772,-1.07796 z m -75.73723,112.38978 a 43.080973,42.308204 0 0 0 -43.08115,42.30787 43.080973,42.308204 0 0 0 43.08115,42.30786 43.080973,42.308204 0 0 0 43.08115,-42.30786 43.080973,42.308204 0 0 0 -43.08115,-42.30787 z"
     id="path10-4" /><path
     style="fill:url(#linearGradient4181);fill-opacity:1;stroke-width:3.66606522;stroke:none"
     d="M 392.47626,31 A 46.143673,45.546558 0 0 0 346.33368,76.546875 46.143673,45.546558 0 0 0 392.47626,122.09375 46.143673,45.546558 0 0 0 438.62079,76.546875 46.143673,45.546558 0 0 0 392.47626,31 Z m -97.42773,35.650391 c -28.44236,0.0036 -57.18087,7.06045 -83.11133,19.71875 -0.92214,0.45182 -1.60813,1.269573 -1.88477,2.246093 -0.28033,0.97651 -0.12598,2.02094 0.41993,2.88086 l 37.33593,58.515626 c 0.94796,1.48664 2.84688,2.07591 4.48829,1.39453 13.84679,-5.78259 28.23384,-8.71484 42.75195,-8.71484 53.40273,0 99.98444,39.11205 108.35742,90.98047 0.28033,1.7417 1.80047,3.01953 3.58203,3.01953 l 70.37695,0.10547 c 1.02541,0 2.0036,-0.42519 2.69336,-1.17579 0.68976,-0.75061 1.02169,-1.74486 0.92579,-2.75781 -3.79184,-38.48502 -20.37561,-75.60853 -46.69336,-104.52148 -1.18771,-1.31174 -3.16869,-1.57354 -4.66993,-0.61524 -10.61193,6.77004 -22.66614,10.35547 -34.8457,10.35547 -35.53172,0 -64.43576,-28.38451 -64.43945,-63.26953 0.004,-0.0182 0.0703,-1.334278 0.0703,-1.392578 0,-1.738052 -1.26509,-3.234418 -3.00977,-3.533203 -11.10989,-1.902024 -21.99022,-3.236328 -32.34765,-3.236328 z M 182.85517,104.72656 c -0.75592,0.0258 -1.49344,0.28229 -2.09375,0.74414 -30.49687,23.20323 -53.42092,55.85148 -64.55664,91.93164 -0.43524,1.41012 0.0441,2.93921 1.2207,3.85743 15.3259,11.9915 24.47461,30.45197 24.47461,49.38476 0,18.9328 -9.15284,37.39913 -24.48242,49.39063 -1.16927,0.91457 -1.65595,2.43975 -1.2207,3.85351 11.04718,35.77773 33.71334,68.24035 63.83398,91.39258 0.80779,0.62308 1.84089,0.87803 2.85156,0.70313 1.00697,-0.17127 1.89572,-0.75844 2.44531,-1.60743 l 37.65626,-58.3789 c 0.9627,-1.49028 0.68225,-3.45147 -0.66407,-4.6211 -23.63987,-20.54696 -37.19531,-49.97379 -37.19531,-80.73047 0,-30.98624 13.70089,-60.5434 37.58789,-81.09765 1.34632,-1.16235 1.64088,-3.11962 0.68555,-4.61719 l -37.34766,-58.53516 c -0.5459,-0.85263 -1.43053,-1.44424 -2.4375,-1.61914 -0.25174,-0.0437 -0.50584,-0.0594 -0.75781,-0.0508 z M 78.224308,204.88672 a 47.224419,46.617813 0 0 0 -47.224609,46.61719 47.224419,46.617813 0 0 0 47.224609,46.61718 47.224419,46.617813 0 0 0 47.224612,-46.61718 47.224419,46.617813 0 0 0 -47.224612,-46.61719 z m 399.066412,60.16016 -70.36914,0.22656 c -1.77419,0.004 -3.2902,1.28264 -3.57422,3.00976 -8.48732,51.48219 -55.04365,90.30664 -108.29883,90.30664 -14.68778,0 -29.23657,-3.00303 -43.23828,-8.92773 -1.63771,-0.68867 -3.53339,-0.10852 -4.4961,1.36719 l -37.63476,58.35351 c -0.54959,0.85627 -0.70655,1.90266 -0.4336,2.88281 0.27295,0.97652 0.9546,1.79623 1.87305,2.24805 26.13333,12.92429 55.15905,19.75196 83.92969,19.75195 10.67096,0 21.78294,-0.99554 33.02929,-2.96679 1.57871,-0.27328 2.78845,-1.54479 2.97657,-3.11524 3.74756,-31.97368 31.14351,-56.08789 63.7207,-56.08789 10.09922,0 20.37545,2.5438 29.71484,7.35352 1.42009,0.73239 3.1504,0.46328 4.27539,-0.66992 29.45302,-29.67085 47.98082,-68.65453 52.15626,-109.78125 0.10327,-1.00931 -0.23235,-2.01528 -0.92579,-2.76953 -0.69345,-0.75425 -1.67965,-1.18529 -2.70507,-1.18164 z M 394.26923,388.24609 A 47.224419,46.377327 0 0 0 347.04462,434.62305 47.224419,46.377327 0 0 0 394.26923,481 47.224419,46.377327 0 0 0 441.49384,434.62305 47.224419,46.377327 0 0 0 394.26923,388.24609 Z"
     id="path10"
     inkscape:connector-curvature="0" /><linearGradient
     id="XMLID_3_"
     gradientUnits="userSpaceOnUse"
     x1="75.503899"
     y1="11.96"
     x2="85.596901"
     y2="36.3307"><stop
       offset="0"
       style="stop-color:#F99D77"
       id="stop33" /><stop
       offset="1"
       style="stop-color:#F7804E"
       id="stop35" /></linearGradient><linearGradient
     id="XMLID_4_"
     gradientUnits="userSpaceOnUse"
     x1="37.674301"
     y1="25.6035"
     x2="37.674301"
     y2="47.500599"><stop
       offset="0"
       style="stop-color:#ba174e;stop-opacity:0.99607843"
       id="stop40" /><stop
       offset="1"
       style="stop-color:#ffc831;stop-opacity:1"
       id="stop42" /></linearGradient><path
     style="overflow:visible;fill:url(#radialGradient4217);fill-opacity:1;stroke:none;stroke-width:3.66606522"
     d="M 392.47626,31 A 46.143673,45.546558 0 0 0 346.33368,76.54688 46.143673,45.546558 0 0 0 392.47626,122.09375 46.143673,45.546558 0 0 0 438.62079,76.54688 46.143673,45.546558 0 0 0 392.47626,31 Z m -97.42773,35.65039 c -28.44236,0.004 -57.18087,7.06045 -83.11133,19.71875 -0.92214,0.45182 -1.60813,1.26958 -1.88477,2.2461 -0.28033,0.97651 -0.12598,2.02094 0.41993,2.88086 l 37.33593,58.51562 c 0.94796,1.48664 2.84688,2.07591 4.48829,1.39453 13.84679,-5.78259 28.23384,-8.71484 42.75195,-8.71484 53.40273,0 99.98444,39.11205 108.35742,90.98047 0.28033,1.7417 1.80047,3.01953 3.58203,3.01953 l 70.37695,0.10547 c 1.02541,0 2.0036,-0.42519 2.69336,-1.17579 0.68976,-0.75061 1.02169,-1.74486 0.92579,-2.75781 -3.79184,-38.48502 -20.37561,-75.60853 -46.69336,-104.52148 -1.18771,-1.31174 -3.16869,-1.57354 -4.66993,-0.61524 -10.61193,6.77004 -22.66614,10.35547 -34.8457,10.35547 -35.53172,0 -64.43576,-28.38451 -64.43945,-63.26953 0.004,-0.0182 0.0703,-1.33428 0.0703,-1.39258 0,-1.73805 -1.26509,-3.23441 -3.00977,-3.5332 -11.10989,-1.90202 -21.99022,-3.23633 -32.34765,-3.23633 z m -112.19336,38.07617 c -0.75592,0.0258 -1.49344,0.28229 -2.09375,0.74414 -30.49687,23.20323 -53.42092,55.85148 -64.55664,91.93164 -0.43524,1.41012 0.0441,2.93921 1.2207,3.85743 15.3259,11.9915 24.47461,30.45197 24.47461,49.38476 0,18.9328 -9.15284,37.39913 -24.48242,49.39063 -1.16927,0.91457 -1.65595,2.43975 -1.2207,3.85351 11.04718,35.77773 33.71334,68.24035 63.83398,91.39258 0.80779,0.62308 1.84089,0.87803 2.85156,0.70313 1.00697,-0.17127 1.89572,-0.75844 2.44531,-1.60743 l 37.65626,-58.3789 c 0.9627,-1.49028 0.68225,-3.45147 -0.66407,-4.6211 -23.63987,-20.54696 -37.19531,-49.97379 -37.19531,-80.73047 0,-30.98624 13.70089,-60.5434 37.58789,-81.09765 1.34632,-1.16235 1.64088,-3.11962 0.68555,-4.61719 l -37.34766,-58.53516 c -0.5459,-0.85263 -1.43053,-1.44424 -2.4375,-1.61914 -0.25174,-0.0437 -0.50584,-0.0594 -0.75781,-0.0508 z M 78.224308,204.88672 a 47.224419,46.617813 0 0 0 -47.224609,46.61719 47.224419,46.617813 0 0 0 47.224609,46.61718 47.224419,46.617813 0 0 0 47.224612,-46.61718 47.224419,46.617813 0 0 0 -47.224612,-46.61719 z m 399.066412,60.16016 -70.36914,0.22656 c -1.77419,0.004 -3.2902,1.28264 -3.57422,3.00976 -8.48732,51.48219 -55.04365,90.30664 -108.29883,90.30664 -14.68778,0 -29.23657,-3.00303 -43.23828,-8.92773 -1.63771,-0.68867 -3.53339,-0.10852 -4.4961,1.36719 l -37.63476,58.35351 c -0.54959,0.85627 -0.70655,1.90266 -0.4336,2.88281 0.27295,0.97652 0.9546,1.79623 1.87305,2.24805 26.13333,12.92429 55.15905,19.75196 83.92969,19.75195 10.67096,0 21.78294,-0.99554 33.02929,-2.96679 1.57871,-0.27328 2.78845,-1.54479 2.97657,-3.11524 3.74756,-31.97368 31.14351,-56.08789 63.7207,-56.08789 10.09922,0 20.37545,2.5438 29.71484,7.35352 1.42009,0.73239 3.1504,0.46328 4.27539,-0.66992 29.45302,-29.67085 47.98082,-68.65453 52.15626,-109.78125 0.10327,-1.00931 -0.23235,-2.01528 -0.92579,-2.76953 -0.69345,-0.75425 -1.67965,-1.18529 -2.70507,-1.18164 z M 394.26923,388.24609 A 47.224419,46.377327 0 0 0 347.04462,434.62305 47.224419,46.377327 0 0 0 394.26923,481 47.224419,46.377327 0 0 0 441.49384,434.62305 47.224419,46.377327 0 0 0 394.26923,388.24609 Z"
     id="path10-1"
     inkscape:connector-curvature="0" /></svg>
